Newaita-dark/apps/48/media-optical-audio-new.svg

<svg height="48" viewBox="0 0 48 48" width="48" xmlns="http://www.w3.org/2000/svg" xmlns:xlink="http://www.w3.org/1999/xlink"><linearGradient id="a"><stop offset="0" stop-opacity=".313726"/><stop offset=".222222" stop-opacity=".27451"/><stop offset="1" stop-opacity="0"/></linearGradient><radialGradient id="b" cx="450.908936" cy="189.579361" gradientTransform="matrix(.00000026 -.117199 -.210958 -.00000015 66.784728 95.392994)" gradientUnits="userSpaceOnUse" r="21.166656" xlink:href="#a"/><radialGradient id="c" cx="450.908936" cy="189.579361" gradientTransform="matrix(-.00000026 .117199 .210958 .00000015 -19.155178 -11.291223)" gradientUnits="userSpaceOnUse" r="21.166656" xlink:href="#a"/><radialGradient id="d" cx="450.908936" cy="189.579361" gradientTransform="matrix(-.00000026 -.117199 .210958 -.00000015 -19.155178 95.392994)" gradientUnits="userSpaceOnUse" r="21.166656" xlink:href="#a"/><radialGradient id="e" cx="450.908936" cy="189.579361" gradientTransform="matrix(.00000026 .117199 -.210958 .00000015 66.784725 -11.291224)" gradientUnits="userSpaceOnUse" r="21.166656" xlink:href="#a"/><linearGradient id="f" gradientTransform="matrix(.0200401 0 0 .093759 18.698079 20.158175)" gradientUnits="userSpaceOnUse" x1="255.323059" x2="255.323044" y1="233.5" y2="254.666656"><stop offset="0" stop-opacity=".27451"/><stop offset="1" stop-opacity="0"/></linearGradient><linearGradient id="g" gradientUnits="userSpaceOnUse" x1="23.814786" x2="23.814786" y1="4.34415549995" y2="42.0509005"><stop offset="0" stop-color="#e0e0e0"/><stop offset="1" stop-color="#bdbdbd"/></linearGradient><linearGradient id="h" gradientUnits="userSpaceOnUse" x1="23.814816" x2="23.814816" y1="42.05096580616" y2="32.62426780616"><stop offset="0" stop-color="#26c6da"/><stop offset="1" stop-color="#4dd0e1"/></linearGradient><linearGradient id="i" gradientUnits="userSpaceOnUse" x1="960.000112" x2="960.000112" y1="1255.11822698163" y2="615.118112"><stop offset="0" stop-color="#f5f5f5"/><stop offset="1" stop-color="#e0e0e0"/></linearGradient><filter id="j" height="100%" width="100%" x="0%" y="0%"><feColorMatrix in="SourceGraphic" type="matrix" values="0 0 0 0 1 0 0 0 0 1 0 0 0 0 1 0 0 0 1 0"/></filter><mask id="k"><g filter="url(#j)"><path d="m0 0h48v48h-48z" fill-opacity=".99"/></g></mask><clipPath id="l"><path d="m0 0h48v48h-48z"/></clipPath><mask id="m"><g filter="url(#j)"><path d="m0 0h48v48h-48z" fill-opacity=".99"/></g></mask><clipPath id="n"><path d="m0 0h48v48h-48z"/></clipPath><mask id="o"><g filter="url(#j)"><path d="m0 0h48v48h-48z" fill-opacity=".99"/></g></mask><clipPath id="p"><path d="m0 0h48v48h-48z"/></clipPath><mask id="q"><g filter="url(#j)"><path d="m0 0h48v48h-48z" fill-opacity=".99"/></g></mask><clipPath id="r"><path d="m0 0h48v48h-48z"/></clipPath><path d="m27.289062 42.050781h3.96875v-1.984375h-3.96875zm0 0" fill="url(#b)"/><path d="m20.339844 42.050781h-3.96875v1.984375h3.96875zm0 0" fill="url(#c)"/><path d="m20.339844 42.050781h-3.96875v-1.984375h3.96875zm0 0" fill="url(#d)"/><path d="m27.289062 42.050781h3.96875v1.984375h-3.96875zm0 0" fill="url(#e)"/><path d="m20.339844 41.554688h6.949218v2.480468h-6.949218zm0 0" fill="url(#f)"/><path d="m23.816406 4.34375c-10.445312 0-18.855468 8.410156-18.855468 18.855469 0 10.441406 8.410156 18.851562 18.855468 18.851562 10.441406 0 18.851563-8.410156 18.851563-18.851562 0-10.445313-8.410157-18.855469-18.851563-18.855469zm0 14.882812c2.195313 0 3.96875 1.773438 3.96875 3.972657 0 2.195312-1.773437 3.96875-3.96875 3.96875-2.199218 0-3.972656-1.773438-3.972656-3.96875 0-2.199219 1.773438-3.972657 3.972656-3.972657zm0 0" fill="url(#g)"/><path d="m23.816406 33.863281c-.3125 0-.621094.25-.992187.746094-1.242188 1.734375-2.03125 2.734375-1.984375 3.96875v3.242187c.96875.152344 1.960937.230469 2.976562.230469 1.011719 0 2.007813-.078125 2.976563-.230469v-3.242187c0-1.242187-.746094-2.234375-1.984375-3.96875-.375-.496094-.683594-.746094-.992188-.746094zm0 0" fill="url(#h)"/><path d="m23.816406 42.050781c-10.445312 0-18.855468-8.410156-18.855468-18.851562 0-.0625 0-.125 0-.1875.101562 10.359375 8.472656 18.667969 18.855468 18.667969 10.382813 0 18.753906-8.308594 18.851563-18.667969v.1875c0 10.441406-8.410157 18.851562-18.851563 18.851562zm0 0" fill-opacity=".196078"/><path d="m23.816406 4.34375c-10.445312 0-18.855468 8.410156-18.855468 18.855469v.183593c.101562-10.359374 8.472656-18.667968 18.855468-18.667968 10.382813 0 18.753906 8.308594 18.851563 18.667968 0-.0625 0-.125 0-.183593 0-10.445313-8.410157-18.855469-18.851563-18.855469zm0 0" fill="#fff" fill-opacity=".588235"/><path d="m23.816406 4.203125c-10.523437 0-18.996094 8.472656-18.996094 18.996094 0 10.519531 8.472657 18.992187 18.996094 18.992187 10.519532 0 18.992188-8.472656 18.992188-18.992187 0-10.523438-8.472656-18.996094-18.992188-18.996094zm0 .28125c10.367188 0 18.710938 8.34375 18.710938 18.714844 0 10.367187-8.34375 18.710937-18.710938 18.710937-10.371094 0-18.714844-8.34375-18.714844-18.710937 0-10.371094 8.34375-18.714844 18.714844-18.714844zm0 0" fill="#212121"/><path d="m11.136719 10.515625c-1.058594 1.082031-1.976563 2.292969-2.734375 3.601563-.753906 1.3125-1.339844 2.710937-1.75 4.164062l4.015625 1.078125c.617187-2.226563 1.789062-4.253906 3.410156-5.902344zm3.683593 3.6875c-1.484374 1.515625-2.5625 3.382813-3.128906 5.429687l8.554688 2.292969c.167968-.542969.457031-1.039062.839844-1.457031zm12.597657 9.921875c-.085938.269531-.199219.527344-.339844.773438-.140625.246093-.308594.472656-.503906.679687l6.273437 6.273437c1.484375-1.519531 2.558594-3.390624 3.125-5.4375zm9.578125 2.5625c-.617188 2.226562-1.789063 4.257812-3.40625 5.90625l2.9375 2.9375c1.058594-1.082031 1.976562-2.289062 2.730468-3.601562.757813-1.308594 1.347657-2.707032 1.75-4.164063zm0 0" fill="#fff" fill-opacity=".588235"/><path d="m960.065849 615.059407c-177.305912 0-320.126926 142.821015-320.126926 320.126927 0 177.148447 142.821014 319.969461 320.126926 319.969461 177.148447 0 319.969461-142.821014 319.969461-319.969461 0-177.305912-142.821014-320.126927-319.969461-320.126927zm0 159.984731c88.495491 0 159.984731 71.48924 159.984731 160.142196 0 88.495491-71.48924 159.984731-159.984731 159.984731-88.652956 0-160.142196-71.48924-160.142196-159.984731 0-88.652956 71.48924-160.142196 160.142196-160.142196zm0 0" fill="url(#i)" stroke="#333" stroke-linecap="round" stroke-width="11.338583" transform="scale(.0248071)"/><path d="m23.816406 33.863281c-.3125 0-.621094.25-.992187.746094-1.242188 1.734375-2.03125 2.734375-1.984375 3.96875v.554687c.035156-1.148437.804687-2.132812 1.984375-3.78125.371093-.496093.679687-.742187.992187-.742187.308594 0 .617188.246094.992188.742187 1.238281 1.738282 1.984375 2.730469 1.984375 3.96875v-.742187c0-1.242187-.746094-2.234375-1.984375-3.96875-.375-.496094-.683594-.746094-.992188-.746094zm0 0" fill="#fff" fill-opacity=".392157"/><path d="m960.065849 1365.066565c-12.597223 0-25.03698 10.077778-39.996183 30.075869-50.073961 69.914587-81.881948 110.225701-79.992365 159.984731v130.696188c39.051391 6.141146 79.047574 9.290451 119.988548 9.290451 40.783509 0 80.937157-3.149305 119.988548-9.290451v-130.696188c0-50.073961-30.07587-90.070144-79.992365-159.984731-15.116668-19.998091-27.556425-30.075869-39.996183-30.075869zm0 0" fill="none" stroke="#212121" stroke-linecap="square" stroke-linejoin="bevel" stroke-width="11.338583" transform="scale(.0248071)"/><path d="m20.839844 38.390625c-.003906.0625-.003906.125 0 .1875zm0 2.667969v.761718c.96875.152344 1.960937.230469 2.976562.230469 1.011719 0 2.007813-.078125 2.976563-.230469v-.761718c-.96875.152344-1.964844.230468-2.976563.230468-1.015625 0-2.007812-.078124-2.976562-.230468zm0 0" fill-opacity=".235294"/><g clip-path="url(#l)" mask="url(#k)"><path d="m23.816406 37.089844c.820313 0 1.488282.664062 1.488282 1.488281 0 .820313-.667969 1.488281-1.488282 1.488281-.824218 0-1.488281-.667968-1.488281-1.488281 0-.824219.664063-1.488281 1.488281-1.488281zm0 0" fill-opacity=".117647"/></g><g clip-path="url(#n)" mask="url(#m)"><path d="m23.816406 37.089844c-.828125 0-1.488281.664062-1.488281 1.488281 0 .085937.003906.167969.019531.246094.117188-.703125.726563-1.238281 1.46875-1.238281.738282 0 1.347656.535156 1.464844 1.238281.015625-.078125.023438-.160157.023438-.246094 0-.824219-.664063-1.488281-1.488282-1.488281zm0 0" fill-opacity=".235294"/></g><g clip-path="url(#p)" mask="url(#o)"><path d="m23.816406 40.5625c-.828125 0-1.488281-.664062-1.488281-1.488281 0-.085938.003906-.167969.019531-.25.117188.707031.726563 1.242187 1.46875 1.242187.738282 0 1.347656-.535156 1.464844-1.242187.015625.082031.023438.164062.023438.25 0 .824219-.664063 1.488281-1.488282 1.488281zm0 0" fill="#fff" fill-opacity=".392157"/></g><g clip-path="url(#r)" mask="url(#q)"><path d="m254.017409 180.587223c8.749165 0 15.873484 7.082657 15.873484 15.873484 0 8.749165-7.124319 15.873485-15.873484 15.873485-8.790827 0-15.873484-7.12432-15.873484-15.873485 0-8.790827 7.082657-15.873484 15.873484-15.873484zm0 0" fill="none" stroke="#212121" stroke-linecap="round" stroke-linejoin="round" stroke-width="3" transform="matrix(.093759 0 0 .093759 0 20.158175)"/></g></svg>

<?xml version="1.0" encoding="UTF-8"?>
<svg xmlns="http://www.w3.org/2000/svg" xmlns:xlink="http://www.w3.org/1999/xlink" width="48px" height="48px" viewBox="0 0 48 48" version="1.1">
<defs>
<radialGradient id="radial0" gradientUnits="userSpaceOnUse" cx="450.908936" cy="189.579361" fx="450.908936" fy="189.579361" r="21.166656" gradientTransform="matrix(0.000000261256,-0.117199,-0.210958,-0.000000152308,66.784728,95.392994)">
<stop offset="0" style="stop-color:rgb(0%,0%,0%);stop-opacity:0.313726;"/>
<stop offset="0.222222" style="stop-color:rgb(0%,0%,0%);stop-opacity:0.27451;"/>
<stop offset="1" style="stop-color:rgb(0%,0%,0%);stop-opacity:0;"/>
</radialGradient>
<radialGradient id="radial1" gradientUnits="userSpaceOnUse" cx="450.908936" cy="189.579361" fx="450.908936" fy="189.579361" r="21.166656" gradientTransform="matrix(-0.000000261256,0.117199,0.210958,0.000000152308,-19.155178,-11.291223)">
<stop offset="0" style="stop-color:rgb(0%,0%,0%);stop-opacity:0.313726;"/>
<stop offset="0.222222" style="stop-color:rgb(0%,0%,0%);stop-opacity:0.27451;"/>
<stop offset="1" style="stop-color:rgb(0%,0%,0%);stop-opacity:0;"/>
</radialGradient>
<radialGradient id="radial2" gradientUnits="userSpaceOnUse" cx="450.908936" cy="189.579361" fx="450.908936" fy="189.579361" r="21.166656" gradientTransform="matrix(-0.000000261256,-0.117199,0.210958,-0.000000152308,-19.155178,95.392994)">
<stop offset="0" style="stop-color:rgb(0%,0%,0%);stop-opacity:0.313726;"/>
<stop offset="0.222222" style="stop-color:rgb(0%,0%,0%);stop-opacity:0.27451;"/>
<stop offset="1" style="stop-color:rgb(0%,0%,0%);stop-opacity:0;"/>
</radialGradient>
<radialGradient id="radial3" gradientUnits="userSpaceOnUse" cx="450.908936" cy="189.579361" fx="450.908936" fy="189.579361" r="21.166656" gradientTransform="matrix(0.000000261256,0.117199,-0.210958,0.000000152308,66.784725,-11.291224)">
<stop offset="0" style="stop-color:rgb(0%,0%,0%);stop-opacity:0.313726;"/>
<stop offset="0.222222" style="stop-color:rgb(0%,0%,0%);stop-opacity:0.27451;"/>
<stop offset="1" style="stop-color:rgb(0%,0%,0%);stop-opacity:0;"/>
</radialGradient>
<linearGradient id="linear0" gradientUnits="userSpaceOnUse" x1="255.323059" y1="233.5" x2="255.323044" y2="254.666656" gradientTransform="matrix(0.0200401,0,0,0.093759,18.698079,20.158175)">
<stop offset="0" style="stop-color:rgb(0%,0%,0%);stop-opacity:0.27451;"/>
<stop offset="1" style="stop-color:rgb(0%,0%,0%);stop-opacity:0;"/>
</linearGradient>
<linearGradient id="linear1" gradientUnits="userSpaceOnUse" x1="254" y1="-168.666672" x2="254" y2="233.5" gradientTransform="matrix(0.093759,0,0,0.093759,0,20.158174)">
<stop offset="0" style="stop-color:rgb(87.843138%,87.843138%,87.843138%);stop-opacity:1;"/>
<stop offset="1" style="stop-color:rgb(74.117649%,74.117649%,74.117649%);stop-opacity:1;"/>
</linearGradient>
<linearGradient id="linear2" gradientUnits="userSpaceOnUse" x1="960" y1="1695.118164" x2="960" y2="1315.118164" gradientTransform="matrix(0.0248071,0,0,0.0248071,0,0.00000000000000282)">
<stop offset="0" style="stop-color:rgb(14.901961%,77.64706%,85.490197%);stop-opacity:1;"/>
<stop offset="1" style="stop-color:rgb(30.19608%,81.568629%,88.235295%);stop-opacity:1;"/>
</linearGradient>
<linearGradient id="linear3" gradientUnits="userSpaceOnUse" x1="254" y1="117.083344" x2="254" y2="-52.25" gradientTransform="matrix(3.779528,0,0,3.779528,0,812.59845)">
<stop offset="0" style="stop-color:rgb(96.078432%,96.078432%,96.078432%);stop-opacity:1;"/>
<stop offset="1" style="stop-color:rgb(87.843138%,87.843138%,87.843138%);stop-opacity:1;"/>
</linearGradient>
<filter id="alpha" filterUnits="objectBoundingBox" x="0%" y="0%" width="100%" height="100%">
  <feColorMatrix type="matrix" in="SourceGraphic" values="0 0 0 0 1 0 0 0 0 1 0 0 0 0 1 0 0 0 1 0"/>
</filter>
<mask id="mask0">
  <g filter="url(#alpha)">
<rect x="0" y="0" width="48" height="48" style="fill:rgb(0%,0%,0%);fill-opacity:0.99;stroke:none;"/>
  </g>
</mask>
<clipPath id="clip1">
  <rect x="0" y="0" width="48" height="48"/>
</clipPath>
<g id="surface5" clip-path="url(#clip1)">
<path style=" stroke:none;fill-rule:nonzero;fill:rgb(0%,0%,0%);fill-opacity:0.117647;" d="M 23.816406 37.089844 C 24.636719 37.089844 25.304688 37.753906 25.304688 38.578125 C 25.304688 39.398438 24.636719 40.066406 23.816406 40.066406 C 22.992188 40.066406 22.328125 39.398438 22.328125 38.578125 C 22.328125 37.753906 22.992188 37.089844 23.816406 37.089844 Z M 23.816406 37.089844 "/>
</g>
<mask id="mask1">
  <g filter="url(#alpha)">
<rect x="0" y="0" width="48" height="48" style="fill:rgb(0%,0%,0%);fill-opacity:0.99;stroke:none;"/>
  </g>
</mask>
<clipPath id="clip2">
  <rect x="0" y="0" width="48" height="48"/>
</clipPath>
<g id="surface8" clip-path="url(#clip2)">
<path style=" stroke:none;fill-rule:nonzero;fill:rgb(0%,0%,0%);fill-opacity:0.235294;" d="M 23.816406 37.089844 C 22.988281 37.089844 22.328125 37.753906 22.328125 38.578125 C 22.328125 38.664062 22.332031 38.746094 22.347656 38.824219 C 22.464844 38.121094 23.074219 37.585938 23.816406 37.585938 C 24.554688 37.585938 25.164062 38.121094 25.28125 38.824219 C 25.296875 38.746094 25.304688 38.664062 25.304688 38.578125 C 25.304688 37.753906 24.640625 37.089844 23.816406 37.089844 Z M 23.816406 37.089844 "/>
</g>
<mask id="mask2">
  <g filter="url(#alpha)">
<rect x="0" y="0" width="48" height="48" style="fill:rgb(0%,0%,0%);fill-opacity:0.99;stroke:none;"/>
  </g>
</mask>
<clipPath id="clip3">
  <rect x="0" y="0" width="48" height="48"/>
</clipPath>
<g id="surface11" clip-path="url(#clip3)">
<path style=" stroke:none;fill-rule:nonzero;fill:rgb(100%,100%,100%);fill-opacity:0.392157;" d="M 23.816406 40.5625 C 22.988281 40.5625 22.328125 39.898438 22.328125 39.074219 C 22.328125 38.988281 22.332031 38.90625 22.347656 38.824219 C 22.464844 39.53125 23.074219 40.066406 23.816406 40.066406 C 24.554688 40.066406 25.164062 39.53125 25.28125 38.824219 C 25.296875 38.90625 25.304688 38.988281 25.304688 39.074219 C 25.304688 39.898438 24.640625 40.5625 23.816406 40.5625 Z M 23.816406 40.5625 "/>
</g>
<mask id="mask3">
  <g filter="url(#alpha)">
<rect x="0" y="0" width="48" height="48" style="fill:rgb(0%,0%,0%);fill-opacity:0.99;stroke:none;"/>
  </g>
</mask>
<clipPath id="clip4">
  <rect x="0" y="0" width="48" height="48"/>
</clipPath>
<g id="surface14" clip-path="url(#clip4)">
<path style="fill:none;stroke-width:3;stroke-linecap:round;stroke-linejoin:round;stroke:rgb(12.941177%,12.941177%,12.941177%);stroke-opacity:1;stroke-miterlimit:4;" d="M 254.017409 180.587223 C 262.766574 180.587223 269.890893 187.66988 269.890893 196.460707 C 269.890893 205.209872 262.766574 212.334192 254.017409 212.334192 C 245.226582 212.334192 238.143925 205.209872 238.143925 196.460707 C 238.143925 187.66988 245.226582 180.587223 254.017409 180.587223 Z M 254.017409 180.587223 " transform="matrix(0.093759,0,0,0.093759,0,20.158175)"/>
</g>
</defs>
<g id="surface1">
<path style=" stroke:none;fill-rule:nonzero;fill:url(#radial0);" d="M 27.289062 42.050781 L 31.257812 42.050781 L 31.257812 40.066406 L 27.289062 40.066406 Z M 27.289062 42.050781 "/>
<path style=" stroke:none;fill-rule:nonzero;fill:url(#radial1);" d="M 20.339844 42.050781 L 16.371094 42.050781 L 16.371094 44.035156 L 20.339844 44.035156 Z M 20.339844 42.050781 "/>
<path style=" stroke:none;fill-rule:nonzero;fill:url(#radial2);" d="M 20.339844 42.050781 L 16.371094 42.050781 L 16.371094 40.066406 L 20.339844 40.066406 Z M 20.339844 42.050781 "/>
<path style=" stroke:none;fill-rule:nonzero;fill:url(#radial3);" d="M 27.289062 42.050781 L 31.257812 42.050781 L 31.257812 44.035156 L 27.289062 44.035156 Z M 27.289062 42.050781 "/>
<path style=" stroke:none;fill-rule:nonzero;fill:url(#linear0);" d="M 20.339844 41.554688 L 27.289062 41.554688 L 27.289062 44.035156 L 20.339844 44.035156 Z M 20.339844 41.554688 "/>
<path style=" stroke:none;fill-rule:nonzero;fill:url(#linear1);" d="M 23.816406 4.34375 C 13.371094 4.34375 4.960938 12.753906 4.960938 23.199219 C 4.960938 33.640625 13.371094 42.050781 23.816406 42.050781 C 34.257812 42.050781 42.667969 33.640625 42.667969 23.199219 C 42.667969 12.753906 34.257812 4.34375 23.816406 4.34375 Z M 23.816406 19.226562 C 26.011719 19.226562 27.785156 21 27.785156 23.199219 C 27.785156 25.394531 26.011719 27.167969 23.816406 27.167969 C 21.617188 27.167969 19.84375 25.394531 19.84375 23.199219 C 19.84375 21 21.617188 19.226562 23.816406 19.226562 Z M 23.816406 19.226562 "/>
<path style=" stroke:none;fill-rule:nonzero;fill:url(#linear2);" d="M 23.816406 33.863281 C 23.503906 33.863281 23.195312 34.113281 22.824219 34.609375 C 21.582031 36.34375 20.792969 37.34375 20.839844 38.578125 L 20.839844 41.820312 C 21.808594 41.972656 22.800781 42.050781 23.816406 42.050781 C 24.828125 42.050781 25.824219 41.972656 26.792969 41.820312 L 26.792969 38.578125 C 26.792969 37.335938 26.046875 36.34375 24.808594 34.609375 C 24.433594 34.113281 24.125 33.863281 23.816406 33.863281 Z M 23.816406 33.863281 "/>
<path style=" stroke:none;fill-rule:nonzero;fill:rgb(0%,0%,0%);fill-opacity:0.196078;" d="M 23.816406 42.050781 C 13.371094 42.050781 4.960938 33.640625 4.960938 23.199219 C 4.960938 23.136719 4.960938 23.074219 4.960938 23.011719 C 5.0625 33.371094 13.433594 41.679688 23.816406 41.679688 C 34.199219 41.679688 42.570312 33.371094 42.667969 23.011719 C 42.667969 23.074219 42.667969 23.136719 42.667969 23.199219 C 42.667969 33.640625 34.257812 42.050781 23.816406 42.050781 Z M 23.816406 42.050781 "/>
<path style=" stroke:none;fill-rule:nonzero;fill:rgb(100%,100%,100%);fill-opacity:0.588235;" d="M 23.816406 4.34375 C 13.371094 4.34375 4.960938 12.753906 4.960938 23.199219 C 4.960938 23.257812 4.960938 23.320312 4.960938 23.382812 C 5.0625 13.023438 13.433594 4.714844 23.816406 4.714844 C 34.199219 4.714844 42.570312 13.023438 42.667969 23.382812 C 42.667969 23.320312 42.667969 23.257812 42.667969 23.199219 C 42.667969 12.753906 34.257812 4.34375 23.816406 4.34375 Z M 23.816406 4.34375 "/>
<path style=" stroke:none;fill-rule:nonzero;fill:rgb(12.941177%,12.941177%,12.941177%);fill-opacity:1;" d="M 23.816406 4.203125 C 13.292969 4.203125 4.820312 12.675781 4.820312 23.199219 C 4.820312 33.71875 13.292969 42.191406 23.816406 42.191406 C 34.335938 42.191406 42.808594 33.71875 42.808594 23.199219 C 42.808594 12.675781 34.335938 4.203125 23.816406 4.203125 Z M 23.816406 4.484375 C 34.183594 4.484375 42.527344 12.828125 42.527344 23.199219 C 42.527344 33.566406 34.183594 41.910156 23.816406 41.910156 C 13.445312 41.910156 5.101562 33.566406 5.101562 23.199219 C 5.101562 12.828125 13.445312 4.484375 23.816406 4.484375 Z M 23.816406 4.484375 "/>
<path style=" stroke:none;fill-rule:nonzero;fill:rgb(100%,100%,100%);fill-opacity:0.588235;" d="M 11.136719 10.515625 C 10.078125 11.597656 9.160156 12.808594 8.402344 14.117188 C 7.648438 15.429688 7.0625 16.828125 6.652344 18.28125 L 10.667969 19.359375 C 11.285156 17.132812 12.457031 15.105469 14.078125 13.457031 Z M 14.820312 14.203125 C 13.335938 15.71875 12.257812 17.585938 11.691406 19.632812 L 20.246094 21.925781 C 20.414062 21.382812 20.703125 20.886719 21.085938 20.46875 Z M 27.417969 24.125 C 27.332031 24.394531 27.21875 24.652344 27.078125 24.898438 C 26.9375 25.144531 26.769531 25.371094 26.574219 25.578125 L 32.847656 31.851562 C 34.332031 30.332031 35.40625 28.460938 35.972656 26.414062 Z M 36.996094 26.6875 C 36.378906 28.914062 35.207031 30.945312 33.589844 32.59375 L 36.527344 35.53125 C 37.585938 34.449219 38.503906 33.242188 39.257812 31.929688 C 40.015625 30.621094 40.605469 29.222656 41.007812 27.765625 Z M 36.996094 26.6875 "/>
<path style="fill-rule:nonzero;fill:url(#linear3);stroke-width:11.338583;stroke-linecap:round;stroke-linejoin:miter;stroke:rgb(20%,20%,20%);stroke-opacity:1;stroke-miterlimit:4;" d="M 960.065849 615.059407 C 782.759937 615.059407 639.938923 757.880422 639.938923 935.186334 C 639.938923 1112.334781 782.759937 1255.155795 960.065849 1255.155795 C 1137.214296 1255.155795 1280.03531 1112.334781 1280.03531 935.186334 C 1280.03531 757.880422 1137.214296 615.059407 960.065849 615.059407 Z M 960.065849 775.044138 C 1048.56134 775.044138 1120.05058 846.533378 1120.05058 935.186334 C 1120.05058 1023.681825 1048.56134 1095.171065 960.065849 1095.171065 C 871.412893 1095.171065 799.923653 1023.681825 799.923653 935.186334 C 799.923653 846.533378 871.412893 775.044138 960.065849 775.044138 Z M 960.065849 775.044138 " transform="matrix(0.0248071,0,0,0.0248071,0,0)"/>
<path style=" stroke:none;fill-rule:nonzero;fill:rgb(100%,100%,100%);fill-opacity:0.392157;" d="M 23.816406 33.863281 C 23.503906 33.863281 23.195312 34.113281 22.824219 34.609375 C 21.582031 36.34375 20.792969 37.34375 20.839844 38.578125 L 20.839844 39.132812 C 20.875 37.984375 21.644531 37 22.824219 35.351562 C 23.195312 34.855469 23.503906 34.609375 23.816406 34.609375 C 24.125 34.609375 24.433594 34.855469 24.808594 35.351562 C 26.046875 37.089844 26.792969 38.082031 26.792969 39.320312 L 26.792969 38.578125 C 26.792969 37.335938 26.046875 36.34375 24.808594 34.609375 C 24.433594 34.113281 24.125 33.863281 23.816406 33.863281 Z M 23.816406 33.863281 "/>
<path style="fill:none;stroke-width:11.338583;stroke-linecap:square;stroke-linejoin:bevel;stroke:rgb(12.941177%,12.941177%,12.941177%);stroke-opacity:1;stroke-miterlimit:4;" d="M 960.065849 1365.066565 C 947.468626 1365.066565 935.028869 1375.144343 920.069666 1395.142434 C 869.995705 1465.057021 838.187718 1505.368135 840.077301 1555.127165 L 840.077301 1685.823353 C 879.128692 1691.964499 919.124875 1695.113804 960.065849 1695.113804 C 1000.849358 1695.113804 1041.003006 1691.964499 1080.054397 1685.823353 L 1080.054397 1555.127165 C 1080.054397 1505.053204 1049.978527 1465.057021 1000.062032 1395.142434 C 984.945364 1375.144343 972.505607 1365.066565 960.065849 1365.066565 Z M 960.065849 1365.066565 " transform="matrix(0.0248071,0,0,0.0248071,0,0)"/>
<path style=" stroke:none;fill-rule:nonzero;fill:rgb(0%,0%,0%);fill-opacity:0.235294;" d="M 20.839844 38.390625 C 20.835938 38.453125 20.835938 38.515625 20.839844 38.578125 Z M 20.839844 41.058594 L 20.839844 41.820312 C 21.808594 41.972656 22.800781 42.050781 23.816406 42.050781 C 24.828125 42.050781 25.824219 41.972656 26.792969 41.820312 L 26.792969 41.058594 C 25.824219 41.210938 24.828125 41.289062 23.816406 41.289062 C 22.800781 41.289062 21.808594 41.210938 20.839844 41.058594 Z M 20.839844 41.058594 "/>
<use xlink:href="#surface5" mask="url(#mask0)"/>
<use xlink:href="#surface8" mask="url(#mask1)"/>
<use xlink:href="#surface11" mask="url(#mask2)"/>
<use xlink:href="#surface14" mask="url(#mask3)"/>
</g>
</svg>
